X: 29
T: Dancing Song (a)
C: Teton Sioux band 1911-1914
N: Derived from sioux029.krn
O: South Dakota, U.S.A.
N: Teton Sioux Music by Frances Densmore, 1918
Z: transcribed to **kern format by Craig Sapp
L: 1/8
M: 2/4
Q: 1/4=58
K: A clef=bass
%%linebreak <none>
E> EE2 [I:setbarnb 2]| 
C3B, | 
B,2C B, | 
A,< A,-A,2 ||  
[M:3/4]A,4C/ B,/ C/ B,/ ||  
[M:2/4]A,3F, | 
F,2A, F, | 
E,< E,-E,2 | 
E,4 | 
E, C,E,2 ||  
[M:3/4]C, C,-C,4 ||  
[M:2/4]E,< C, E,/ C,3/ | 
C,4 |]  



